share/pixmaps/tryton/tryton-go-next.svg

<?xml version="1.0" encoding="UTF-8" standalone="no"?>
<!-- Created with Inkscape (http://www.inkscape.org/) -->
<svg
   xmlns:dc="http://purl.org/dc/elements/1.1/"
   xmlns:cc="http://creativecommons.org/ns#"
   xmlns:rdf="http://www.w3.org/1999/02/22-rdf-syntax-ns#"
   xmlns:svg="http://www.w3.org/2000/svg"
   xmlns="http://www.w3.org/2000/svg"
   xmlns:xlink="http://www.w3.org/1999/xlink"
   xmlns:sodipodi="http://sodipodi.sourceforge.net/DTD/sodipodi-0.dtd"
   xmlns:inkscape="http://www.inkscape.org/namespaces/inkscape"
   sodipodi:docname="go-next.svg"
   sodipodi:docbase="/home/tigert/cvs/freedesktop.org/tango-icon-theme/scalable/actions"
   inkscape:version="0.46"
   sodipodi:version="0.32"
   id="svg11300"
   height="48"
   width="48"
   inkscape:export-filename="/home/jimmac/Desktop/wi-fi.png"
   inkscape:export-xdpi="90.000000"
   inkscape:export-ydpi="90.000000"
   version="1.0"
   inkscape:output_extension="org.inkscape.output.svg.inkscape">
  <defs
     id="defs3">
    <inkscape:perspective
       sodipodi:type="inkscape:persp3d"
       inkscape:vp_x="0 : 24 : 1"
       inkscape:vp_y="0 : 1000 : 0"
       inkscape:vp_z="48 : 24 : 1"
       inkscape:persp3d-origin="24 : 16 : 1"
       id="perspective23" />
    <linearGradient
       id="linearGradient2591">
      <stop
         style="stop-color:#73d216"
         offset="0"
         id="stop2593" />
      <stop
         style="stop-color:#4e9a06"
         offset="1.0000000"
         id="stop2595" />
    </linearGradient>
    <linearGradient
       id="linearGradient8662"
       inkscape:collect="always">
      <stop
         id="stop8664"
         offset="0"
         style="stop-color:#000000;stop-opacity:1;" />
      <stop
         id="stop8666"
         offset="1"
         style="stop-color:#000000;stop-opacity:0;" />
    </linearGradient>
    <linearGradient
       id="linearGradient8650"
       inkscape:collect="always">
      <stop
         id="stop8652"
         offset="0"
         style="stop-color:#ffffff;stop-opacity:1;" />
      <stop
         id="stop8654"
         offset="1"
         style="stop-color:#ffffff;stop-opacity:0;" />
    </linearGradient>
    <radialGradient
       gradientUnits="userSpaceOnUse"
       gradientTransform="matrix(2.046729,-3.749427e-16,2.853404e-16,1.557610,-19.51799,3.452086)"
       r="17.171415"
       fy="2.8969381"
       fx="19.701141"
       cy="2.8969381"
       cx="19.701141"
       id="radialGradient8656"
       xlink:href="#linearGradient8650"
       inkscape:collect="always" />
    <radialGradient
       gradientUnits="userSpaceOnUse"
       gradientTransform="matrix(1.000000,0.000000,0.000000,0.536723,2.511012e-15,16.87306)"
       r="15.644737"
       fy="36.421127"
       fx="24.837126"
       cy="36.421127"
       cx="24.837126"
       id="radialGradient8668"
       xlink:href="#linearGradient8662"
       inkscape:collect="always" />
    <radialGradient
       inkscape:collect="always"
       xlink:href="#linearGradient2591"
       id="radialGradient2597"
       cx="22.291636"
       cy="32.797512"
       fx="22.291636"
       fy="32.797512"
       r="16.9562"
       gradientTransform="matrix(0.843022,1.871885e-16,-2.265228e-16,1.020168,4.499298,1.381992)"
       gradientUnits="userSpaceOnUse" />
  </defs>
  <sodipodi:namedview
     inkscape:window-y="30"
     inkscape:window-x="0"
     inkscape:window-height="818"
     inkscape:window-width="1280"
     inkscape:showpageshadow="false"
     inkscape:document-units="px"
     inkscape:grid-bbox="true"
     showgrid="false"
     inkscape:current-layer="layer1"
     inkscape:cy="27.398876"
     inkscape:cx="20.508639"
     inkscape:zoom="11.313708"
     inkscape:pageshadow="2"
     inkscape:pageopacity="0.0"
     borderopacity="0.25490196"
     bordercolor="#666666"
     pagecolor="#ffffff"
     id="base"
     fill="#4e9a06"
     stroke="#4e9a06" />
  <metadata
     id="metadata4">
    <rdf:RDF>
      <cc:Work
         rdf:about="">
        <dc:format>image/svg+xml</dc:format>
        <dc:type
           rdf:resource="http://purl.org/dc/dcmitype/StillImage" />
        <dc:creator>
          <cc:Agent>
            <dc:title>Jakub Steiner</dc:title>
          </cc:Agent>
        </dc:creator>
        <dc:source>http://jimmac.musichall.cz</dc:source>
        <cc:license
           rdf:resource="http://creativecommons.org/licenses/publicdomain/" />
        <dc:title>Go Next</dc:title>
        <dc:subject>
          <rdf:Bag>
            <rdf:li>go</rdf:li>
            <rdf:li>next</rdf:li>
            <rdf:li>right</rdf:li>
            <rdf:li>arrow</rdf:li>
            <rdf:li>pointer</rdf:li>
            <rdf:li>&gt;</rdf:li>
          </rdf:Bag>
        </dc:subject>
      </cc:Work>
      <cc:License
         rdf:about="http://creativecommons.org/licenses/publicdomain/">
        <cc:permits
           rdf:resource="http://creativecommons.org/ns#Reproduction" />
        <cc:permits
           rdf:resource="http://creativecommons.org/ns#Distribution" />
        <cc:permits
           rdf:resource="http://creativecommons.org/ns#DerivativeWorks" />
      </cc:License>
    </rdf:RDF>
  </metadata>
  <g
     inkscape:groupmode="layer"
     inkscape:label="Layer 1"
     id="layer1">
    <path
       transform="matrix(1.271186,0.000000,0.000000,1.271186,-8.119376,-15.10179)"
       d="M 40.481863 36.421127 A 15.644737 8.3968935 0 1 1  9.1923885,36.421127 A 15.644737 8.3968935 0 1 1  40.481863 36.421127 z"
       sodipodi:ry="8.3968935"
       sodipodi:rx="15.644737"
       sodipodi:cy="36.421127"
       sodipodi:cx="24.837126"
       id="path8660"
       style="opacity:0.29946522;color:#000000;fill:url(#radialGradient8668);fill-opacity:1;fill-rule:evenodd;stroke:none;stroke-width:1;stroke-linecap:butt;stroke-linejoin:miter;marker:none;marker-start:none;marker-mid:none;marker-end:none;stroke-miterlimit:10;stroke-dasharray:none;stroke-dashoffset:0;stroke-opacity:1;visibility:visible;display:inline;overflow:visible"
       sodipodi:type="arc" />
    <path
       sodipodi:nodetypes="cccccccc"
       id="path8643"
       d="M 8.5541875,15.517348 L 8.5541875,32.511768 L 21.538,32.511768 L 21.538,41.056806 L 41.497835,24.150365 L 21.41919,7.1251168 L 21.41919,15.522652 L 8.5541875,15.517348 z "
       style="opacity:1;color:#000000;fill:url(#radialGradient2597);fill-opacity:1;fill-rule:evenodd;stroke:#3a7304;stroke-width:1.00000036;stroke-linecap:round;stroke-linejoin:round;marker:none;marker-start:none;marker-mid:none;marker-end:none;stroke-miterlimit:10;stroke-dasharray:none;stroke-dashoffset:0;stroke-opacity:1;visibility:visible;display:inline;overflow:visible" />
    <path
       sodipodi:nodetypes="cccccc"
       id="path8645"
       d="M 21.962385,8.2485033 L 21.962385,16.054978 L 9.1452151,16.054978 L 9.1452151,25.095691 C 26.895215,27.095691 25.778752,17.640403 40.528752,24.140403 L 21.962385,8.2485033 z "
       style="opacity:0.5080214;color:#000000;fill:url(#radialGradient8656);fill-opacity:1;fill-rule:evenodd;stroke:none;stroke-width:1;stroke-linecap:round;stroke-linejoin:round;marker:none;marker-start:none;marker-mid:none;marker-end:none;stroke-miterlimit:10;stroke-dasharray:none;stroke-dashoffset:0;stroke-opacity:1;visibility:visible;display:inline;overflow:visible" />
    <path
       style="opacity:0.48128339;color:#000000;fill:none;fill-opacity:1;fill-rule:evenodd;stroke:#ffffff;stroke-width:1.00000036;stroke-linecap:butt;stroke-linejoin:miter;marker:none;marker-start:none;marker-mid:none;marker-end:none;stroke-miterlimit:10;stroke-dasharray:none;stroke-dashoffset:0;stroke-opacity:1;visibility:visible;display:inline;overflow:visible"
       d="M 9.537702,16.561892 L 9.537702,31.546332 L 22.523069,31.546332 L 22.523069,38.941498 L 40.001083,24.145807 L 22.507108,9.3654066 L 22.507108,16.566789 L 9.537702,16.561892 z "
       id="path8658"
       sodipodi:nodetypes="cccccccc" />
  </g>
</svg>

<?xml version="1.0" encoding="utf-8"?>
<!-- Generator: Adobe Illustrator 16.0.0, SVG Export Plug-In . SVG Version: 6.00 Build 0)  -->
<!DOCTYPE svg PUBLIC "-//W3C//DTD SVG 1.1//EN" "http://www.w3.org/Graphics/SVG/1.1/DTD/svg11.dtd">
<svg version="1.1"
	 id="svg11300" inkscape:output_extension="org.inkscape.output.svg.inkscape" sodipodi:docname="go-next.svg" sodipodi:docbase="/home/tigert/cvs/freedesktop.org/tango-icon-theme/scalable/actions" inkscape:version="0.46" sodipodi:version="0.32" xmlns:dc="http://purl.org/dc/elements/1.1/" xmlns:cc="http://creativecommons.org/ns#" xmlns:rdf="http://www.w3.org/1999/02/22-rdf-syntax-ns#" xmlns:svg="http://www.w3.org/2000/svg" xmlns:sodipodi="http://sodipodi.sourceforge.net/DTD/sodipodi-0.dtd" xmlns:inkscape="http://www.inkscape.org/namespaces/inkscape" inkscape:export-ydpi="90.000000" inkscape:export-xdpi="90.000000" inkscape:export-filename="/home/jimmac/Desktop/wi-fi.png"
	 xmlns="http://www.w3.org/2000/svg" xmlns:xlink="http://www.w3.org/1999/xlink" x="0px" y="0px" width="48px" height="48px"
	 viewBox="0 0 48 48" enable-background="new 0 0 48 48" xml:space="preserve">
<defs  display="none">
	
	
		<inkscape:perspective  inkscape:persp3d-origin="24 : 16 : 1" inkscape:vp_z="48 : 24 : 1" inkscape:vp_y="0 : 1000 : 0" inkscape:vp_x="0 : 24 : 1" sodipodi:type="inkscape:persp3d" id="perspective23">
		</inkscape:perspective>
</defs>
<sodipodi:namedview  fill="#4e9a06" stroke="#4e9a06" inkscape:showpageshadow="false" inkscape:window-y="30" inkscape:window-x="0" inkscape:window-height="818" inkscape:window-width="1280" inkscape:document-units="px" inkscape:grid-bbox="true" inkscape:current-layer="layer1" inkscape:pageopacity="0.0" inkscape:pageshadow="2" showgrid="false" inkscape:cy="27.398876" inkscape:cx="20.508639" inkscape:zoom="11.313708" borderopacity="0.25490196" bordercolor="#666666" pagecolor="#ffffff" id="base">
	</sodipodi:namedview>
<g id="layer1" inkscape:groupmode="layer" inkscape:label="Layer 1" display="none">
	
		<radialGradient id="path8660_1_" cx="20.7832" cy="-306.4219" r="15.647" gradientTransform="matrix(1.2712 0 0 -0.6823 -2.9667 -177.8679)" gradientUnits="userSpaceOnUse">
		<stop  offset="0" style="stop-color:#000000"/>
		<stop  offset="1" style="stop-color:#000000;stop-opacity:0"/>
	</radialGradient>
	
		<path id="path8660" sodipodi:cx="24.837126" sodipodi:cy="36.421127" sodipodi:ry="8.3968935" sodipodi:rx="15.644737" sodipodi:type="arc" display="inline" opacity="0.2995" fill="url(#path8660_1_)" enable-background="new    " d="
		M43.341,31.196c0.003,5.896-8.897,10.675-19.881,10.677c-10.983,0.002-19.89-4.775-19.894-10.67c0-0.002,0-0.005,0-0.007
		c-0.003-5.896,8.897-10.676,19.881-10.677c10.983-0.002,19.891,4.776,19.894,10.67C43.341,31.191,43.341,31.193,43.341,31.196z"/>
	
		<radialGradient id="path8643_1_" cx="130.709" cy="-122.4531" r="16.9562" gradientTransform="matrix(0.843 0 0 -1.0202 -86.899 -90.0811)" gradientUnits="userSpaceOnUse">
		<stop  offset="0" style="stop-color:#73D216"/>
		<stop  offset="1" style="stop-color:#4E9A06"/>
	</radialGradient>
	
		<path id="path8643" sodipodi:nodetypes="cccccccc" display="inline" fill="url(#path8643_1_)" stroke="#3A7304" stroke-width="1" stroke-linecap="round" stroke-linejoin="round" stroke-miterlimit="10" d="
		M8.554,15.518v16.994h12.984v8.545l19.96-16.906L21.419,7.125v8.397L8.554,15.518z"/>
	
		<radialGradient id="path8645_1_" cx="-68.2627" cy="33.0967" r="17.1723" gradientTransform="matrix(2.0467 0 0 -1.5576 160.5189 59.5171)" gradientUnits="userSpaceOnUse">
		<stop  offset="0" style="stop-color:#FFFFFF"/>
		<stop  offset="1" style="stop-color:#FFFFFF;stop-opacity:0"/>
	</radialGradient>
	
		<path id="path8645" sodipodi:nodetypes="cccccc" display="inline" opacity="0.508" fill="url(#path8645_1_)" enable-background="new    " d="
		M21.962,8.249v7.807H9.145v9.041c17.75,2,16.634-7.455,31.384-0.955L21.962,8.249z"/>
	
		<path id="path8658" sodipodi:nodetypes="cccccccc" display="inline" opacity="0.4813" fill="none" stroke="#FFFFFF" stroke-width="1" stroke-miterlimit="10" enable-background="new    " d="
		M9.538,16.562v14.985h12.985v7.395l17.478-14.795L22.507,9.365v7.202L9.538,16.562z"/>
</g>
<polygon fill="#3498DB" points="16.429,6.011 15.133,7.178 30.573,24.335 15.133,41.493 16.429,42.659 32.922,24.335 "/>
</svg>
